X:1
T:41
T:Hugo Distler
T:Martin Luther (1483 - 1546)
T:41.  Jesus Christ, Our Lord and Savior* Jesus Christus, unser Heiland Maundy Thursday
T:Bärenreiter
T:Bärenreiter
T:Bärenreiter
C:Hugo Distler
Z:Martin Luther
Z:(1483 - 1546)
Z:Bärenreiter
%%score [ 1 ( 2 3 ) ( 4 5 ) ]
L:1/8
Q:1/4=100
M:4/4
K:C
V:1 treble nm="Sop."
V:2 treble nm="Alto"
V:3 treble 
V:4 bass nm="Bar."
V:5 bass 
V:1
 D4 A2 (A2- | A2 G2 A2) D2 | FF (F4 E2) |[M:5/4] !breath!D2 F3 F F2 D2 |[M:4/4] F4 G2 (A2- | %5
w: 1. Je- sus Christ,|_ _ _ our|Lord and Sav- *|ior, who God's wrath has|turned to fa-|
w: 2. So that we|_ _ _ should|not for- get _|Him, His own bo- dy|to us giv-|
w: 3. Let us hon-|* * * or|God, the Fa- *|ther, who such nour- ish-|ment does of-|
 AG F2 E4) | D6 z2 | F3 F F2 D2 | (F4 G2 A2- | AG F2 G2) G2 | F6 z2 | z8 | (c2 d2) c2 (A2- | %13
w: |vor,|through the suf- f'ring|He _ _|_ _ _ _ en-|dured||our _ re- lease|
w: |en,|well con- cealed in|loaf _ _|_ _ _ _ so|fine,||and _ the cup|
w: |fer|and for our mis-|deeds _ _|_ _ _ _ and|sins||un- * to death|
 AG F2) G2 G2 |"^(,)" (!breath!A4 A2 _B2 | A3 G F2 E2- | E2 D4) ^C2 |[M:3/4]"^rit." (D3 E GF | %18
w: _ _ _ from Hell's|pain _ _|_ _ _ _|* * se-|cured. _ _ _|
w: _ _ _ with His|blood _ _|_ _ _ _|* * as|wine. _ _ _|
w: _ _ _ His Son|has _ _|_ _ _ _|* * He|giv'n. _ _ _|
 A6) |] %19
w: _|
w: _|
w: _|
V:2
 A,4 E2 (E2- | E2 D2 E2) A,2 | CC (C4 B,2) |[M:5/4] !breath!A,6 C3 C |[M:4/4] C2 _B,2 (DE F2- | %5
w: 1. Je- sus Christ,|_ _ _ our|Lord and Sav- *|ior, who God's|wrath has turned _ _|
w: 2. So that we|_ _ _ should|not for- get _|Him, His own|bo- dy to _ _|
w: 3. Let us hon-|* * * or|God, the Fa- *|ther, who such|nour- ish- ment _ _|
 F2) D4 ^C2 | !breath!D4 =C3 C | C2 _B,2 (D4 | C3"^(,)" C D2 F2- | FE D2 C2) _B,2 | C6 z2 | z8 | %12
w: _ to fa-|vor, through the|suf- f'ring He|_ _ _ _|* * * * en-|dured||
w: _ us giv-|en, well con-|cealed in loaf|_ _ _ _|* * * * so|fine,||
w: _ does of-|fer and for|our mis- deeds|_ _ _ _|* * * * and|sins||
 z4 (F2 G2) | F2 (D3 C) _B,2 | A,2 (D3 C DE | F2 E3 D C_B, | A,4) G,4 |[M:3/4] (D4 E2 | G2 ^F4) |] %19
w: our _|re- lease _ from|Hell's pain _ _ _|_ _ _ _ _|* se-|cured. _|_ _|
w: and _|the cup _ with|His blood _ _ _|_ _ _ _ _|* as|wine. _|_ _|
w: un- *|to death _ His|Son has _ _ _|_ _ _ _ _|* He|giv'n. _|_ _|
V:3
 x8 | x8 | x8 |[M:5/4] x10 |[M:4/4] x8 | x8 | x8 | x8 | x8 | x6 _B,2 | A,6 x2 | x8 | x8 | x8 | x8 | %15
 x8 | x4 G,4 |[M:3/4] D6- | D6 |] %19
V:4
 D,4 A,2 (A,2- | A,2 G,2 A,2) D,2 | F,F, (F,4 E,2) |[M:5/4] D,6 z4 |[M:4/4] F,3 F, E,2 D,2 | %5
w: 1. Je- sus Christ,|_ _ _ our|Lord and Sav- *|ior,|who God's wrath has|
w: 2. So that we|_ _ _ should|not for- get _|Him,|His own bo- dy|
w: 3. Let us hon-|* * * or|God, the Fa- *|ther,|who such nour- ish-|
 F,4 G,2 (A,2- | A,G, F,2 E,4) | D,6 z2 | z8 | F,3 F, E,2 D,2 | (F,4 G,2 A,2- | A,G, F,2 G,2) G,2 | %12
w: turned to fa-||vor,||through the suf- f'ring|He _ _|_ _ _ _ en-|
w: to us giv-||en,||well con- cealed in|loaf _ _|_ _ _ _ so|
w: ment does of-||fer||and for our mis-|deeds _ _|_ _ _ _ and|
 F,6 z2 | z4 (C2 D2) | C2 (A,3 G, F,2) | F,2 G,2 (A,3 G, | F,4) E,4 |[M:3/4] A,6- | A,6 |] %19
w: dured|our _|re- lease _ _|from Hell's pain _|_ se-|cured.|_|
w: fine,|and _|the cup _ _|with His blood _|_ as|wine.|_|
w: sins|un- *|to death _ _|His Son has _|_ He|giv'n.|_|
V:5
 x8 | x8 | x8 |[M:5/4] x10 |[M:4/4] x8 | x8 | x8 | x8 | x8 | x8 | x8 | x8 | x8 | x8 | x8 | x8 | %16
 x4 E,4 |[M:3/4] D,6- | D,6 |] %19

